X: 33314
T: Quare Fella, The
R: reel
M: 4/4
K: Adorian
|:cB|AcBG AEE/E/E|GABG A/B/A B/c/d|eaa/a/a gedB|GABd gedB|
A/B/c BG AE^DE|GA B/A/G A2 Bd|ea^ga =gedB|G/G/G BG A2:|
|:B/c/d|eaa/a/a eaca|eaa/a/a bgag|egg/g/g dgg/g/g|AgBg bgag|
ea^ga eaca|eAce bgag|ed B/c/d G2 Bd|gedB A2:|

